X:52
T:52 Untitled Polka
C:Aylmore MS
I:abc2nwc
M:2/4
L:1/16
K:G
GA|B2B2 Bdce|d2G2 G2B2|c2e2 B2d2|edcB A2GA|
B2B2 Bdce|d2G2 G2ge|edcB dcBA|A4G2:|
Bc|d2d2 d2ef|g2d2 d2ef|gfed edcB|cBAG A2GA|
B2B2 Bdce|d2G2 G2ge|edcB dcBA|G4G2:|

